X:1
T:O Holy Night
T:O Holy Night
T:Translated by John Sullivan Dwight, 1858
T:Placide Cappeau (1808-1877), 1847
T:Public Domain
Z:Public Domain
L:1/8
M:4/4
K:C
V:1 treble 
V:1
 [CCE]2 [CE]>[CE] | (([CG]2 [CG]>))[CG] [CA]>[CA][CF]>[DA] | [Ec]4 [EG]>[CG][CE]>[DD] | %3
w: O ho- ly|night, * the stars are bright- ly|shi- ning, It is the|
w: Led by the|light * of Faith se- rene- ly|beam- ing; With glow- ing|
 [CC]2 [CE]>[CF] [B,G]2 [B,F]>[B,D] |[M:5/4] [CC]6 [CE]2 [CE]>[CE] | %5
w: night of the dear Sa- vior’s|birth; Long lay the|
w: hearts by His crad- le we|stand: So, led by|
[M:4/4] (([CG]2 [CG]>))[CG] [CA]>[CA][CF]>[DA] | [Ec]4 [EG]>[CG][_B,^F]>[EE] | %7
w: world * in sin and er- ror|pin- ing, Till He ap-|
w: light * of a star sweet- ly|gleam- ing, Here came the|
 [EB]2 [EG]>[EA] [^DB]2 [Dc]>[DB] | [EE]6 z [B,G] | [B,G]2 [B,A]2 [DD]2 [DG]2 | %10
w: peared and the soul felt its|worth. A|thrill of hope the|
w: wise men from Or- i- ent|land, The|King of Kings lay|
 [EA]>[EG][Ec]>[CE] [EA]2 [EG]>[CG] | [B,G]2 [B,A]2 [DD]2 [DG]2 | [EA]>[EG][Ec]>[CE] [CG]4 | %13
w: wea- ry world re- joi- ces, For|yon- der breaks a|new and glo- rious morn;|
w: thus in low- ly man- ger, In|all our tri- als|born to be our friend;|
 [Ec]6 [EB]>[EA] | [GB]6 z [EB] | (([Fd]4 [Fd]>))[FA][FA]>[FA] | [Ec]4 [Ec]3 [Ec] | %17
w: Fall on your|knees, Oh|hear * the an- gel|voi- ces! O|
w: ||||
 (([Ge]4 [Gd]3)) [GG] | (([Gc]4 [Ac]2)) (([GB]>[FA])) | (([EG]4 [FG]>))[FG][FA]>[FG] | %20
w: night * di-|vine, * O *|night * when Christ was|
w: |||
 [EG]6 [Gc]2 | [Gd]6 z [GG] | [Ge]6 [Ae]2 | [Gc]4 [FB]2 [Fc]>[Fd] | [Ec]6 |] %25
w: born! O|night, di-|vine Oh|night, O night di-|vine.|
w: |||||

